X:36
T: SCHOEN ISTS UNTER FREIEM HIMMEL
N: B0045
O: Europa, Mitteleuropa, Deutschland
R: Kriegs -, Sieges -, Soldaten - Lied
M: 4/4
L: 1/16
K: C
G3G | c6G2A6A2 | G4C4z4
G3G | c6G2A6A2 | G4C4z4
G2G2 | d6d2e6e2 | d4z8
e2e2 | d6d2e6e2 | d4z8
G2G2 | c4G4E4C4 | F4D4z4
D2D2 | d4B4G4F4 | E4C4z4
E2E2 | F6F2G6G2 | A8z4
E2E2 | F6F2G6G2 | C8z4

